X: 38668
T: Strange Drums, The
R: mazurka
M: 3/4
K: Dmajor
~F3 EFA|~F3 EFA|~E3 DEF|E2 D EFA|
~F3 EFA|~F3 EFA|~d2 A d2 e|efe d2:|
~f2 e f2 e|d2 A Bde|~f2 e f2 e|dBA BFA|
~f2 e f2 e|d2 B ABF|~E3 DEF|~E2 A d2:|

